X: 687
T: Jig of Slurs
C:Pipe Major G.S.MacLellan
B: jims roots
B: nick
M:6/8
L:1/8
R: jig
Q: 3/8=100
K:D
V:1 
|: A | "D"Add dcd | "G"Bdd "D"Add | "G"Bdd "D"Add | "Em"Bee "A7"edB |
  "D"Add dcd | "G"Bdd "D"Add | "G"Bdd "A7"cde | "D"fdd d2 :|
|: B | "D"Aff fef | aff fed | "Em"Bee ede | "G"fed "A7"edB |
  "D"Aff fef | aff fed | "G"Bdd "A7"cde | "D"fdd d2 [K:=c]:|
|: [K: G]B | "G"Ggg gfg | "Em"age "D"gdB | "G"Ggg gfg | "D7"age "G"g2B |
  "G"Ggg gfg | "Em"age "D"gdB | "Em"Bee efg | "D"fed "Em"e2 :|
|: B | "G"GBB Bdd | dee "D"edB | "G"GBB Bdd | "C"dee efg |
  "G"GBB Bdd | dee "D"edB | "Em"Bee efg | "D"fed "Em"e2 :|
% abcbook-tune_id 6298c25d84bc5018183a8967


% abcbook-boost 0
% abcbook-tablature 
% abcbook-transpose 
% abcbook-lastupdated 1665491355163
% abcbook-soundfonts 
% abcbook-repeats 1


